z_dist/img/icons/crypto/filecoin-FIL.svg

<svg width="64" height="64" viewBox="0 0 64 64" fill="none" xmlns="http://www.w3.org/2000/svg">
<rect y="0.000244141" width="64" height="64" rx="4" fill="#0090FF"/>
<path fill-rule="evenodd" clip-rule="evenodd" d="M34.7762 28.248L33.8244 33.3747L42.8664 34.6564L42.2319 37.0595L33.3485 35.7778C32.714 37.8605 32.3967 40.1034 31.6035 42.0259C30.8104 44.2688 30.0172 46.5117 29.0654 48.5944C27.7964 51.318 25.5755 53.2405 22.5615 53.7211C20.8165 54.0415 18.9129 53.8813 17.4852 52.7598C17.0093 52.4394 16.5334 51.7986 16.5334 51.318C16.5334 50.6771 16.8507 49.8761 17.3266 49.5557C17.6439 49.3955 18.437 49.5557 18.9129 49.7159C19.3888 50.1965 19.8647 50.8374 20.182 51.4782C21.1338 52.7598 22.4028 52.9201 23.6719 51.9588C25.0996 50.6771 25.8928 48.9149 26.3687 47.1526C27.3205 43.3076 28.2723 39.6228 29.0654 35.7778V35.137L20.6579 33.8553L20.9752 31.4522L29.6999 32.7339L30.8104 27.7674L21.7683 26.3255L22.0856 23.7622L31.4449 25.0439C31.7622 24.0826 31.9208 23.2816 32.2381 22.4806C33.0312 19.5968 33.8244 16.7131 35.728 14.1497C37.6316 11.5864 39.8524 9.98434 43.1837 10.1445C44.6114 10.1445 46.0391 10.6252 46.9909 11.7466C47.1495 11.9068 47.4668 12.2272 47.4668 12.5477C47.4668 13.1885 47.4668 13.9895 46.9909 14.4702C46.3564 14.9508 45.5632 14.7906 44.9287 14.1497C44.4528 13.6691 44.1355 13.1885 43.6596 12.7079C42.7078 11.4262 41.2801 11.266 40.1697 12.3875C39.3765 13.1885 38.5834 14.3099 38.1075 15.4314C36.997 18.7958 36.2039 22.3203 35.0934 25.8449L43.8182 27.1266L43.1837 29.5297L34.7762 28.248Z" fill="white"/>
</svg>

<svg width="64" height="64" fill="none" xmlns="http://www.w3.org/2000/svg"><rect width="64" height="64" rx="4" fill="#0090FF"/><path fill-rule="evenodd" clip-rule="evenodd" d="M34.776 28.248l-.952 5.127 9.042 1.281-.634 2.404-8.883-1.282c-.635 2.083-.952 4.325-1.745 6.248-.794 2.243-1.587 4.486-2.539 6.568-1.269 2.724-3.49 4.646-6.504 5.127-1.744.32-3.648.16-5.076-.961-.476-.32-.952-.961-.952-1.442 0-.64.318-1.442.794-1.762.317-.16 1.11 0 1.586.16.476.48.952 1.121 1.269 1.762.952 1.282 2.22 1.442 3.49.48 1.428-1.28 2.22-3.043 2.697-4.805.951-3.845 1.903-7.53 2.696-11.375v-.641l-8.407-1.282.317-2.403 8.725 1.282 1.11-4.967-9.042-1.441.318-2.564 9.359 1.282c.317-.961.476-1.762.793-2.563.793-2.884 1.586-5.768 3.49-8.331 1.904-2.564 4.124-4.166 7.456-4.005 1.427 0 2.855.48 3.807 1.602.159.16.476.48.476.8 0 .641 0 1.442-.476 1.923-.635.48-1.428.32-2.062-.32-.476-.48-.794-.962-1.27-1.442-.951-1.282-2.379-1.442-3.49-.32-.792.8-1.586 1.922-2.061 3.043-1.111 3.365-1.904 6.89-3.015 10.414l8.725 1.282-.634 2.403-8.408-1.282z" fill="#fff"/></svg>
